resources/svg/facebook-footer.svg

<svg xmlns="http://www.w3.org/2000/svg" width="32" height="32" viewBox="0 0 32 32" fill="none">
    <path d="M29.3327 15.9993C29.3327 8.63935 23.3593 2.66602 15.9993 2.66602C8.63935 2.66602 2.66602 8.63935 2.66602 15.9993C2.66602 22.3462 7.10259 27.6484 13.033 29.0013C13.1872 29.0365 13.3327 28.918 13.3327 28.7599V20.2493C13.3327 20.1113 13.2208 19.9993 13.0827 19.9993H10.916C10.7779 19.9993 10.666 19.8874 10.666 19.7493V16.2493C10.666 16.1113 10.7779 15.9993 10.916 15.9993H13.0827C13.2208 15.9993 13.3327 15.8874 13.3327 15.7493V12.666C13.3327 10.0927 15.426 7.99935 17.9993 7.99935H21.0827C21.2208 7.99935 21.3327 8.11128 21.3327 8.24935V11.7493C21.3327 11.8874 21.2208 11.9993 21.0827 11.9993H18.666C17.9327 11.9993 17.3327 12.5993 17.3327 13.3327V15.7493C17.3327 15.8874 17.4446 15.9993 17.5827 15.9993H21.0827C21.2208 15.9993 21.3327 16.1113 21.3327 16.2493V19.7493C21.3327 19.8874 21.2208 19.9993 21.0827 19.9993H17.5827C17.4446 19.9993 17.3327 20.1113 17.3327 20.2493V28.99C17.3327 29.1378 17.4609 29.2535 17.6077 29.2359C24.2089 28.444 29.3327 22.8249 29.3327 15.9993Z" fill="#427CFA"/>
</svg>

<svg xmlns="http://www.w3.org/2000/svg" width="32" height="32" fill="none"><path d="M29.3 16A13.3 13.3 0 1 0 13 29c.2 0 .3 0 .3-.2v-8.6s0-.2-.2-.2h-2.2a.2.2 0 0 1-.2-.3v-3.5s0-.2.2-.2h2.2c.1 0 .2-.1.2-.3v-3C13.3 10 15.4 8 18 8h3c.2 0 .3.1.3.2v3.5c0 .2 0 .3-.2.3h-2.4c-.8 0-1.4.6-1.4 1.3v2.4c0 .2.1.3.3.3H21l.2.2v3.5c0 .2 0 .3-.2.3h-3.5c-.2 0-.3.1-.3.2V29c0 .1.2.3.3.2 6.6-.8 11.7-6.4 11.7-13.2Z" fill="#427CFA"/></svg>
